**kern	**silbe	**kern	**silbe	**harmony	**phrase	**leadinstrument	**rhyme	**timestamp	**harte
*ICvox	*	*ICvox	*	*M4/4	*	*	*	*	*M4/4
*VRlead	*	*VRharmonize*VRresponse	*	*	*	*	*	*	*
*Hstimme	*	*Nstimme	*	*	*	*	*	*	*
*D:	*	*D:	*	*D:	*	*	*	*	*D:
*M4/4	*	*M4/4	*	*	*	*	*	*	*
*clefG2	*	*clefG2	*	*	*	*	*	*	*
r;	.	r;	.	1r;	.	r	.	0	N.C.
r;	.	r;	.	1r;	.	r	.	0.037	N.C.
=1	=1	=1	=1	=1	=1	=1	=1	=1	=1
*>Letter>A	*>Letter>A	*>Letter>A	*>Letter>A	*>Letter>A	*>Letter>A	*>Letter>A	*>Letter>A	*>Letter>A	*>Letter>A
*>Label>Intro	*>Label>Intro	*>Label>Intro	*>Label>Intro	*>Label>Intro	*>Label>Intro	*>Label>Intro	*>Label>Intro	*>Label>Intro	*>Label>Intro
1r	.	1r	.	1DM	newline	r	.	0.366	D:maj
=2	=2	=2	=2	=2	=2	=2	=2	=2	=2
1r	.	1r	.	1AM	.	r	.	2.676	A:maj
=3	=3	=3	=3	=3	=3	=3	=3	=3	=3
1r	.	1r	.	1DM	.	r	.	4.987	D:maj/3
=4	=4	=4	=4	=4	=4	=4	=4	=4	=4
1r	.	1r	.	1GM	.	r	.	7.298	G:maj
=5	=5	=5	=5	=5	=5	=5	=5	=5	=5
1r	.	1r	.	1DM	newline	r	.	9.608	D:maj
=6	=6	=6	=6	=6	=6	=6	=6	=6	=6
1r	.	1r	.	1AM	.	r	.	11.94	A:maj
=7	=7	=7	=7	=7	=7	=7	=7	=7	=7
1r	.	1r	.	1DM	.	r	.	14.272	D:maj/3
=8	=8	=8	=8	=8	=8	=8	=8	=8	=8
1r	.	1r	.	1GM	.	r	.	16.604	G:maj
=9	=9	=9	=9	=9	=9	=9	=9	=9	=9
1r	.	1r	.	1DM	newline	guitar	.	18.936	D:maj
=10	=10	=10	=10	=10	=10	=10	=10	=10	=10
1r	.	1r	.	1AM	.	guitar	.	21.254	A:maj
=11	=11	=11	=11	=11	=11	=11	=11	=11	=11
1r	.	1r	.	1DM	.	guitar	.	23.573	D:maj/3
=12	=12	=12	=12	=12	=12	=12	=12	=12	=12
1r	.	1r	.	1GM	.	guitar	.	25.892	G:maj
=13	=13	=13	=13	=13	=13	=13	=13	=13	=13
1r	.	1r	.	1DM	newline	guitar	.	28.21	D:maj
=14	=14	=14	=14	=14	=14	=14	=14	=14	=14
1r	.	1r	.	1AM	.	guitar	.	30.509	A:maj
=15	=15	=15	=15	=15	=15	=15	=15	=15	=15
1r	.	1r	.	1DM	.	guitar	.	32.807	D:maj/3
=16	=16	=16	=16	=16	=16	=16	=16	=16	=16
1r	.	1r	.	1GM	.	guitar	.	35.106	G:maj
=17	=17	=17	=17	=17	=17	=17	=17	=17	=17
1r	.	1r	.	1FM	newline	guitar	.	37.405	F:maj
=18	=18	=18	=18	=18	=18	=18	=18	=18	=18
1r	.	1r	.	1CM	.	guitar	.	39.742	C:maj
=19	=19	=19	=19	=19	=19	=19	=19	=19	=19
1r	.	1r	.	1GM	.	guitar	.	42.08	G:maj
=20	=20	=20	=20	=20	=20	=20	=20	=20	=20
1r	.	1r	.	1GM	.	guitar	.	44.417	G:maj
=21	=21	=21	=21	=21	=21	=21	=21	=21	=21
*>Letter>B	*>Letter>B	*>Letter>B	*>Letter>B	*>Letter>B	*>Letter>B	*>Letter>B	*>Letter>B	*>Letter>B	*>Letter>B
*>Label>Trans	*>Label>Trans	*>Label>Trans	*>Label>Trans	*>Label>Trans	*>Label>Trans	*>Label>Trans	*>Label>Trans	*>Label>Trans	*>Label>Trans
1r	.	1r	.	2DM	newline	guitar	.	46.754	D:5
.	.	.	.	2FM	.	guitar	.	47.914	F:maj
=22	=22	=22	=22	=22	=22	=22	=22	=22	=22
1r	.	1r	.	2GM	.	guitar	.	49.073	G:5
.	.	.	.	2Am	.	guitar	.	50.233	A:min
=23	=23	=23	=23	=23	=23	=23	=23	=23	=23
1r	.	1r	.	2DM	.	guitar	.	51.392	D:5
.	.	.	.	2FM	.	guitar	.	52.551	F:maj
=24	=24	=24	=24	=24	=24	=24	=24	=24	=24
1r	.	1r	.	4GM	.	guitar	.	53.711	G:5
.	.	.	.	2B-M	.	guitar	.	54.291	B-:maj
.	.	.	.	4CM	.	guitar	.	55.45	C:maj
=25	=25	=25	=25	=25	=25	=25	=25	=25	=25
1r	.	1r	.	2DM	newline	guitar	.	56.03	D:5
.	.	.	.	2FM	.	guitar	.	57.184	F:maj
=26	=26	=26	=26	=26	=26	=26	=26	=26	=26
1r	.	1r	.	2GM	.	guitar	.	58.339	G:5
.	.	.	.	2Am	.	guitar	.	59.493	A:min
=27	=27	=27	=27	=27	=27	=27	=27	=27	=27
1r	.	1r	.	2DM	.	guitar	.	60.648	D:5
.	.	.	.	2FM	.	guitar	.	61.802	F:maj
=28	=28	=28	=28	=28	=28	=28	=28	=28	=28
1r	.	1r	.	1GM	.	guitar	.	62.957	G:5
=29	=29	=29	=29	=29	=29	=29	=29	=29	=29
*>Letter>C	*>Letter>C	*>Letter>C	*>Letter>C	*>Letter>C	*>Letter>C	*>Letter>C	*>Letter>C	*>Letter>C	*>Letter>C
*>Label>Verse	*>Label>Verse	*>Label>Verse	*>Label>Verse	*>Label>Verse	*>Label>Verse	*>Label>Verse	*>Label>Verse	*>Label>Verse	*>Label>Verse
8dd	Eve-	1r	.	2DM	newline	voice	.	65.266	D:5
8g	-ry-	.	.	.	.	.	.	.	.
8g	-bo-	.	.	.	.	.	.	.	.
8f	-dy's	.	.	.	.	.	.	.	.
8g	loo-	.	.	2FM	.	voice	.	66.427	F:maj
8f	-kin'	.	.	.	.	.	a	.	.
8d	for	.	.	.	.	.	.	.	.
8f	some-	.	.	.	.	.	.	.	.
=30	=30	=30	=30	=30	=30	=30	=30	=30	=30
4d	-thin'	1r	.	2GM	.	voice	a	67.587	G:5
4r	.	.	.	.	.	.	.	.	.
2r	.	.	.	2Am	.	voice	.	68.748	A:min
=31	=31	=31	=31	=31	=31	=31	=31	=31	=31
8r	.	1r	.	2DM	.	voice	.	69.908	D:5
8a	Some-	.	.	.	.	.	.	.	.
8g	-thin'	.	.	.	.	.	.	.	.
8f	to	.	.	.	.	.	.	.	.
8g	fill	.	.	2FM	.	voice	.	71.069	F:maj
8f	in	.	.	.	.	.	.	.	.
8d	the	.	.	.	.	.	.	.	.
16f	holes	.	.	.	.	.	B	.	.
[16d	_	.	.	.	.	.	.	.	.
=32	=32	=32	=32	=32	=32	=32	=32	=32	=32
4d]	_	1r	.	4GM	.	voice	.	72.23	G:5
4r	.	.	.	2B-M	.	voice	.	72.81	B-:maj
2r	.	.	.	.	.	.	.	.	.
.	.	.	.	4CM	.	voice	.	73.97	C:maj
=33	=33	=33	=33	=33	=33	=33	=33	=33	=33
8r	.	1r	.	2DM	newline	voice	.	74.551	D:5
8dd	We	.	.	.	.	.	.	.	.
16g	think	.	.	.	.	.	.	.	.
16f	a	.	.	.	.	.	.	.	.
8g	lot	.	.	.	.	.	.	.	.
8r	.	.	.	2FM	.	voice	.	75.71	F:maj
8f	but	.	.	.	.	.	.	.	.
8g	don't	.	.	.	.	.	.	.	.
8r	.	.	.	.	.	.	.	.	.
=34	=34	=34	=34	=34	=34	=34	=34	=34	=34
8g	talk	1r	.	2GM	.	voice	.	76.869	G:5
8g	much	.	.	.	.	.	.	.	.
8f	a-	.	.	.	.	.	.	.	.
16a	-bout	.	.	.	.	.	.	.	.
[16f	it	.	.	.	.	.	A	.	.
4f]	_	.	.	2Am	.	voice	.	78.028	A:min
4r	.	.	.	.	.	.	.	.	.
=35	=35	=35	=35	=35	=35	=35	=35	=35	=35
8r	.	1r	.	2DM	.	voice	.	79.187	D:5
8c	till	.	.	.	.	.	.	.	.
8d	things	.	.	.	.	.	.	.	.
8a	get	.	.	.	.	.	.	.	.
8g	out	.	.	2FM	.	voice	.	80.346	F:maj
8f	of	.	.	.	.	.	.	.	.
8d	con-	.	.	.	.	.	.	.	.
8f	-trol	.	.	.	.	.	B	.	.
=36	=36	=36	=36	=36	=36	=36	=36	=36	=36
8d	_	1r	.	2CM	.	voice	.	81.505	C:maj
16A	_	.	.	.	.	.	.	.	.
16G	_	.	.	.	.	.	.	.	.
4r	.	.	.	.	.	.	.	.	.
8r	.	.	.	2Am	.	voice	.	82.665	A:min
4b	Oh!	.	.	.	.	.	B	.	.
8r	.	.	.	.	.	.	.	.	.
=37	=37	=37	=37	=37	=37	=37	=37	=37	=37
*>Letter>D	*>Letter>D	*>Letter>D	*>Letter>D	*>Letter>D	*>Letter>D	*>Letter>D	*>Letter>D	*>Letter>D	*>Letter>D
*>Label>Chorus	*>Label>Chorus	*>Label>Chorus	*>Label>Chorus	*>Label>Chorus	*>Label>Chorus	*>Label>Chorus	*>Label>Chorus	*>Label>Chorus	*>Label>Chorus
1r	.	8f#	How	1DM	newline	voice	.	83.824	D:maj
.	.	8g	do	.	.	.	.	.	.
.	.	8a	I	.	.	.	.	.	.
.	.	4a	know	.	.	.	.	.	.
.	.	8g	when	.	.	.	.	.	.
.	.	8f#	it's	.	.	.	.	.	.
.	.	[8e	love?	.	.	.	.	.	.
=38	=38	=38	=38	=38	=38	=38	=38	=38	=38
2r	.	4e]	_	1AM	.	voice	.	86.142	A:maj
.	.	4r	.	.	.	.	.	.	.
8b	I	2r	.	.	.	.	.	.	.
4cc#	can't	.	.	.	.	.	.	.	.
[8dd	tell	.	.	.	.	.	.	.	.
=39	=39	=39	=39	=39	=39	=39	=39	=39	=39
8dd]	_	1r	.	1Bm	.	voice	.	88.461	B:min
8b	you	.	.	.	.	.	.	.	.
8f#	but	.	.	.	.	.	.	.	.
8d	it	.	.	.	.	.	.	.	.
8d	last	.	.	.	.	.	.	.	.
4f#	for-	.	.	.	.	.	.	.	.
8f#	-e-	.	.	.	.	.	(C	.	.
=40	=40	=40	=40	=40	=40	=40	=40	=40	=40
4e	-ver	1r	.	2Em	.	voice	c)	90.779	E:sus4
4r	.	.	.	.	.	.	.	.	.
8r	.	.	.	2AM	.	voice	.	91.939	A:maj
4b	Oh	.	.	.	.	.	.	.	.
[8a	_	.	.	.	.	.	.	.	.
=41	=41	=41	=41	=41	=41	=41	=41	=41	=41
8a]	_	8f#	How	1DM	newline	voice	.	93.098	D:maj
8r	.	8g	does	.	.	.	.	.	.
4r	.	8a	it	.	.	.	.	.	.
.	.	[8a	feel-	.	.	.	.	.	.
2r	.	8a]	_	.	.	.	.	.	.
.	.	8g	-when	.	.	.	.	.	.
.	.	8f#	it's	.	.	.	.	.	.
.	.	[8e	love?	.	.	.	.	.	.
=42	=42	=42	=42	=42	=42	=42	=42	=42	=42
4r	.	4e]	_	1AM	.	voice	.	95.435	A:maj
4r	.	4r	.	.	.	.	.	.	.
8b	It's	2r	.	.	.	.	.	.	.
4cc#	just	.	.	.	.	.	.	.	.
[8dd	some-	.	.	.	.	.	.	.	.
=43	=43	=43	=43	=43	=43	=43	=43	=43	=43
8dd]	_	1r	.	1Bm	.	voice	.	97.772	B:min
8b	-thing	.	.	.	.	.	.	.	.
8f#	you	.	.	.	.	.	.	.	.
8d	feel	.	.	.	.	.	.	.	.
4r	.	.	.	.	.	.	.	.	.
8f#	to-	.	.	.	.	.	.	.	.
8f#	-ge-	.	.	.	.	.	(C	.	.
=44	=44	=44	=44	=44	=44	=44	=44	=44	=44
4e	-ther	1r	.	2Em	.	voice	c)	100.11	E:sus4
4r	.	.	.	.	.	.	.	.	.
8r	.	.	.	2AM	.	voice	.	101.278	A:maj
8b	When	.	.	.	.	.	.	.	.
8b	it's	.	.	.	.	.	.	.	.
8a	love	.	.	.	.	.	.	.	.
=45	=45	=45	=45	=45	=45	=45	=45	=45	=45
*>Letter>B	*>Letter>B	*>Letter>B	*>Letter>B	*>Letter>B	*>Letter>B	*>Letter>B	*>Letter>B	*>Letter>B	*>Letter>B
*>Label>Trans	*>Label>Trans	*>Label>Trans	*>Label>Trans	*>Label>Trans	*>Label>Trans	*>Label>Trans	*>Label>Trans	*>Label>Trans	*>Label>Trans
2f#	_	1r	.	1DM	newline	guitar	.	102.447	D:maj
2r	.	.	.	.	.	.	.	.	.
=46	=46	=46	=46	=46	=46	=46	=46	=46	=46
1r	.	1r	.	1AM	.	guitar	.	104.764	A:maj
=47	=47	=47	=47	=47	=47	=47	=47	=47	=47
1r	.	1r	.	1Bm	.	guitar	.	107.081	B:min
=48	=48	=48	=48	=48	=48	=48	=48	=48	=48
1r	.	1r	.	2FM	.	guitar	.	109.398	F:maj
.	.	.	.	2GM	.	guitar	.	110.557	G:maj
=49	=49	=49	=49	=49	=49	=49	=49	=49	=49
*>Letter>C	*>Letter>C	*>Letter>C	*>Letter>C	*>Letter>C	*>Letter>C	*>Letter>C	*>Letter>C	*>Letter>C	*>Letter>C
*>Label>Verse	*>Label>Verse	*>Label>Verse	*>Label>Verse	*>Label>Verse	*>Label>Verse	*>Label>Verse	*>Label>Verse	*>Label>Verse	*>Label>Verse
8r	.	1r	.	2DM	newline	voice	.	111.715	D:5
8dd	You	.	.	.	.	.	.	.	.
8dd	look	.	.	.	.	.	.	.	.
8f	at	.	.	.	.	.	.	.	.
8g	eve-	.	.	2FM	.	voice	.	112.871	F:maj
8f	-ry	.	.	.	.	.	.	.	.
8r	.	.	.	.	.	.	.	.	.
[8a	face	.	.	.	.	.	.	.	.
=50	=50	=50	=50	=50	=50	=50	=50	=50	=50
8a]	_	1r	.	2GM	.	voice	.	114.026	G:5
16d	in	.	.	.	.	.	.	.	.
16d	the	.	.	.	.	.	.	.	.
8d	crowd	.	.	.	.	.	.	.	.
8f	_	.	.	.	.	.	.	.	.
2r	.	.	.	2Am	.	voice	.	115.181	A:min
=51	=51	=51	=51	=51	=51	=51	=51	=51	=51
8r	.	1r	.	2DM	.	voice	.	116.337	D:5
8a	Some	.	.	.	.	.	.	.	.
8g	shine	.	.	.	.	.	.	.	.
8f	and	.	.	.	.	.	.	.	.
8g	some	.	.	2FM	.	voice	.	117.492	F:maj
8g	keep	.	.	.	.	.	.	.	.
8a	you	.	.	.	.	.	.	.	.
8g	guess-	.	.	.	.	.	(D	.	.
=52	=52	=52	=52	=52	=52	=52	=52	=52	=52
4f	-in'	1r	.	4GM	.	voice	d)	118.647	G:5
4r	.	.	.	2B-M	.	voice	.	119.225	B-:maj
2r	.	.	.	.	.	.	.	.	.
.	.	.	.	4CM	.	voice	.	120.38	C:maj
=53	=53	=53	=53	=53	=53	=53	=53	=53	=53
8dd	Wait-	1r	.	2DM	newline	voice	.	120.958	D:5
8a	-ing	.	.	.	.	.	.	.	.
8g	for	.	.	.	.	.	.	.	.
8g	some-	.	.	.	.	.	.	.	.
4f	-one	.	.	2FM	.	voice	.	122.122	F:maj
8r	.	.	.	.	.	.	.	.	.
8d	to	.	.	.	.	.	.	.	.
=54	=54	=54	=54	=54	=54	=54	=54	=54	=54
8g	come	1r	.	2GM	.	voice	.	123.285	G:maj
8g	in-	.	.	.	.	.	.	.	.
8f	-to	.	.	.	.	.	.	.	.
16a	fo-	.	.	.	.	.	.	.	.
[16f	-cus	.	.	.	.	.	.	.	.
4f]	_	.	.	2Am	.	voice	.	124.449	A:min
4r	.	.	.	.	.	.	.	.	.
=55	=55	=55	=55	=55	=55	=55	=55	=55	=55
8r	.	1r	.	2DM	.	voice	.	125.613	D:5
8c	Teach	.	.	.	.	.	.	.	.
8d	you	.	.	.	.	.	.	.	.
8a	your	.	.	.	.	.	.	.	.
8g	fi-	.	.	2FM	.	voice	.	126.776	F:maj
8f	-nal	.	.	.	.	.	.	.	.
8d	love	.	.	.	.	.	.	.	.
8f	le-	.	.	.	.	.	(D	.	.
=56	=56	=56	=56	=56	=56	=56	=56	=56	=56
8d	-sson	1r	.	2GM	.	voice	d)	127.94	G:maj
16A	_	.	.	.	.	.	.	.	.
16G	_	.	.	.	.	.	.	.	.
4r	.	.	.	.	.	.	.	.	.
2r	.	.	.	2AM	.	voice	.	129.104	A:maj
=57	=57	=57	=57	=57	=57	=57	=57	=57	=57
*>Letter>D	*>Letter>D	*>Letter>D	*>Letter>D	*>Letter>D	*>Letter>D	*>Letter>D	*>Letter>D	*>Letter>D	*>Letter>D
*>Label>Chorus	*>Label>Chorus	*>Label>Chorus	*>Label>Chorus	*>Label>Chorus	*>Label>Chorus	*>Label>Chorus	*>Label>Chorus	*>Label>Chorus	*>Label>Chorus
1r	.	8f#	How	1DM	newline	voice	.	130.267	D:maj
.	.	8g	do	.	.	.	.	.	.
.	.	8a	I	.	.	.	.	.	.
.	.	4a	know	.	.	.	.	.	.
.	.	8g	when	.	.	.	.	.	.
.	.	8f#	it's	.	.	.	.	.	.
.	.	[8e	love?	.	.	.	.	.	.
=58	=58	=58	=58	=58	=58	=58	=58	=58	=58
2r	.	4e]	_	1AM	.	voice	.	132.585	A:maj
.	.	4r	.	.	.	.	.	.	.
8b	I	2r	.	.	.	.	.	.	.
4cc#	can't	.	.	.	.	.	.	.	.
[8dd	tell	.	.	.	.	.	.	.	.
=59	=59	=59	=59	=59	=59	=59	=59	=59	=59
8dd]	_	1r	.	1Bm	.	voice	.	134.902	B:min
8b	you	.	.	.	.	.	.	.	.
8f#	but	.	.	.	.	.	.	.	.
8d	it	.	.	.	.	.	.	.	.
8d	last	.	.	.	.	.	.	.	.
4f#	for-	.	.	.	.	.	.	.	.
8f#	-e-	.	.	.	.	.	(C	.	.
=60	=60	=60	=60	=60	=60	=60	=60	=60	=60
4e	-ver	1r	.	2Em	.	voice	c)	137.22	E:sus4
4r	.	.	.	.	.	.	.	.	.
8r	.	.	.	2AM	.	voice	.	138.378	A:maj
4b	Oh	.	.	.	.	.	.	.	.
[8a	_	.	.	.	.	.	.	.	.
=61	=61	=61	=61	=61	=61	=61	=61	=61	=61
8a]	_	8f#	How	1DM	newline	voice	.	139.537	D:maj
8r	.	8g	does	.	.	.	.	.	.
4r	.	8a	it	.	.	.	.	.	.
.	.	[8a	feel	.	.	.	.	.	.
2r	.	8a]	_	.	.	.	.	.	.
.	.	8g	when	.	.	.	.	.	.
.	.	8f#	it's	.	.	.	.	.	.
.	.	[8e	love?	.	.	.	.	.	.
=62	=62	=62	=62	=62	=62	=62	=62	=62	=62
4r	.	4e]	_	1AM	.	voice	.	141.87	A:maj
4r	.	4r	.	.	.	.	.	.	.
8b	It's	2r	.	.	.	.	.	.	.
4cc#	just	.	.	.	.	.	.	.	.
[8dd	some-	.	.	.	.	.	.	.	.
=63	=63	=63	=63	=63	=63	=63	=63	=63	=63
8dd]	_	1r	.	1Bm	.	voice	.	144.203	B:min
8b	-thing	.	.	.	.	.	.	.	.
8f#	you	.	.	.	.	.	.	.	.
8d	feel	.	.	.	.	.	.	.	.
4r	.	.	.	.	.	.	.	.	.
8f#	to-	.	.	.	.	.	.	.	.
8f#	-ge-	.	.	.	.	.	(C	.	.
=64	=64	=64	=64	=64	=64	=64	=64	=64	=64
4e	-ther	1r	.	2Em	.	voice	c)	146.537	E:sus4
4r	.	.	.	.	.	.	.	.	.
2r	.	.	.	2AM	.	voice	.	147.703	A:maj
=65	=65	=65	=65	=65	=65	=65	=65	=65	=65
*>Letter>E	*>Letter>E	*>Letter>E	*>Letter>E	*>Letter>E	*>Letter>E	*>Letter>E	*>Letter>E	*>Letter>E	*>Letter>E
*>Label>Bridge	*>Label>Bridge	*>Label>Bridge	*>Label>Bridge	*>Label>Bridge	*>Label>Bridge	*>Label>Bridge	*>Label>Bridge	*>Label>Bridge	*>Label>Bridge
1r	.	4r	.	1FM	newline	voice	.	148.87	F:maj
.	.	8cc	Oh	.	.	.	.	.	.
.	.	4.a	_	.	.	.	.	.	.
.	.	8cc	Oh	.	.	.	.	.	.
.	.	8b	_	.	.	.	.	.	.
=66	=66	=66	=66	=66	=66	=66	=66	=66	=66
8r	.	1r	.	1GM	.	voice	.	151.195	G:maj
2dd	Oh	.	.	.	.	.	.	.	.
16b	when	.	.	.	.	.	.	.	.
8.b	it's	.	.	.	.	.	.	.	.
16cc	love	.	.	.	.	.	.	.	.
16b	_	.	.	.	.	.	.	.	.
=67	=67	=67	=67	=67	=67	=67	=67	=67	=67
4a	_	4r	.	1FM	.	voice	.	153.52	F:maj
4r	.	8cc	Oh	.	.	.	.	.	.
.	.	[8a	_	.	.	.	.	.	.
2r	.	4a]	_	.	.	.	.	.	.
.	.	8cc	Oh	.	.	.	.	.	.
.	.	[8dd	_	.	.	.	.	.	.
=68	=68	=68	=68	=68	=68	=68	=68	=68	=68
8r	.	8dd]	_	1GM	.	voice	.	155.845	G:maj
8cc	You	8r	.	.	.	.	.	.	.
8b	can	4r	.	.	.	.	.	.	.
[8dd	feel	.	.	.	.	.	.	.	.
8dd]	_	2r	.	.	.	.	.	.	.
8.b	it	.	.	.	.	.	A	.	.
8.cc	yeah	.	.	.	.	.	.	.	.
=69	=69	=69	=69	=69	=69	=69	=69	=69	=69
1r	.	4r	.	1FM	newline	voice	.	158.17	F:maj
.	.	8cc	Oh	.	.	.	.	.	.
.	.	[8a	_	.	.	.	.	.	.
.	.	4a]	_	.	.	.	.	.	.
.	.	8cc	Oh	.	.	.	.	.	.
.	.	8b	_	.	.	.	.	.	.
=70	=70	=70	=70	=70	=70	=70	=70	=70	=70
1r	.	1r	.	1GM	.	voice	.	160.484	G:maj
=71	=71	=71	=71	=71	=71	=71	=71	=71	=71
4ee	No-	1r	.	1Am	.	voice	.	162.798	A:min
4ee	-thing's	.	.	.	.	.	.	.	.
8dd	miss-	.	.	.	.	.	.	.	.
[4.cc	-ing	.	.	.	.	.	a	.	.
=72	=72	=72	=72	=72	=72	=72	=72	=72	=72
2cc_	_	1r	.	1Am	.	voice	.	165.113	A:min
8cc]	_	.	.	.	.	.	.	.	.
4a	yeah	.	.	.	.	.	.	.	.
8r	.	.	.	.	.	.	.	.	.
=73	=73	=73	=73	=73	=73	=73	=73	=73	=73
*>Letter>C	*>Letter>C	*>Letter>C	*>Letter>C	*>Letter>C	*>Letter>C	*>Letter>C	*>Letter>C	*>Letter>C	*>Letter>C
*>Label>Solo	*>Label>Solo	*>Label>Solo	*>Label>Solo	*>Label>Solo	*>Label>Solo	*>Label>Solo	*>Label>Solo	*>Label>Solo	*>Label>Solo
1r	.	1r	.	2DM	newline	guitar	.	167.427	D:5
.	.	.	.	2FM	.	guitar	.	168.589	F:maj
=74	=74	=74	=74	=74	=74	=74	=74	=74	=74
1r	.	1r	.	2GM	.	guitar	.	169.75	G:5
.	.	.	.	2Am	.	guitar	.	170.912	A:min
=75	=75	=75	=75	=75	=75	=75	=75	=75	=75
1r	.	1r	.	2DM	.	guitar	.	172.074	D:5
.	.	.	.	2FM	.	guitar	.	173.236	F:maj
=76	=76	=76	=76	=76	=76	=76	=76	=76	=76
1r	.	1r	.	4GM	.	guitar	.	174.397	G:5
.	.	.	.	2B-M	.	guitar	.	174.978	B-:maj
.	.	.	.	4CM	.	guitar	.	176.14	C:maj
=77	=77	=77	=77	=77	=77	=77	=77	=77	=77
1r	.	1r	.	2DM	newline	guitar	.	176.721	D:5
.	.	.	.	2FM	.	guitar	.	177.879	F:maj
=78	=78	=78	=78	=78	=78	=78	=78	=78	=78
1r	.	1r	.	2GM	.	guitar	.	179.037	G:5
.	.	.	.	2Am	.	guitar	.	180.195	A:min
=79	=79	=79	=79	=79	=79	=79	=79	=79	=79
1r	.	1r	.	2DM	.	guitar	.	181.353	D:5
.	.	.	.	2FM	.	guitar	.	182.511	F:maj
=80	=80	=80	=80	=80	=80	=80	=80	=80	=80
1r	.	1r	.	2CM	.	guitar	.	183.669	C:maj
.	.	.	.	2Am	.	guitar	.	184.827	A:min
=81	=81	=81	=81	=81	=81	=81	=81	=81	=81
*>Letter>E	*>Letter>E	*>Letter>E	*>Letter>E	*>Letter>E	*>Letter>E	*>Letter>E	*>Letter>E	*>Letter>E	*>Letter>E
*>Label>Bridge	*>Label>Bridge	*>Label>Bridge	*>Label>Bridge	*>Label>Bridge	*>Label>Bridge	*>Label>Bridge	*>Label>Bridge	*>Label>Bridge	*>Label>Bridge
1r	.	4r	.	1FM	newline	voice	.	185.985	F:maj
.	.	8cc	Oh	.	.	.	.	.	.
.	.	4.a	_	.	.	.	.	.	.
.	.	8cc	Oh	.	.	.	.	.	.
.	.	8b	_	.	.	.	.	.	.
=82	=82	=82	=82	=82	=82	=82	=82	=82	=82
4r	.	1r	.	1GM	.	voice	.	188.289	G:maj
4.dd	Yeah	.	.	.	.	.	.	.	.
16cc	you	.	.	.	.	.	.	.	.
16cc	can	.	.	.	.	.	.	.	.
8ff	feel	.	.	.	.	.	.	.	.
8ff	it	.	.	.	.	.	A	.	.
=83	=83	=83	=83	=83	=83	=83	=83	=83	=83
1r	.	4r	.	1FM	.	voice	.	190.592	F:maj
.	.	8cc	Oh	.	.	.	.	.	.
.	.	4.a	_	.	.	.	.	.	.
.	.	8cc	Oh	.	.	.	.	.	.
.	.	8dd	_	.	.	.	.	.	.
=84	=84	=84	=84	=84	=84	=84	=84	=84	=84
8r	.	1r	.	1GM	.	voice	.	192.896	G:maj
2dd	Oh	.	.	.	.	.	.	.	.
16b	when	.	.	.	.	.	.	.	.
8.b	it's	.	.	.	.	.	.	.	.
16cc	love	.	.	.	.	.	.	.	.
16b	_	.	.	.	.	.	.	.	.
=85	=85	=85	=85	=85	=85	=85	=85	=85	=85
4a	_	4r	.	1FM	newline	voice	.	195.2	F:maj
4r	.	8cc	Oh	.	.	.	.	.	.
.	.	[8a	_	.	.	.	.	.	.
2r	.	4a]	_	.	.	.	.	.	.
.	.	8cc	Oh	.	.	.	.	.	.
.	.	8b	_	.	.	.	.	.	.
=86	=86	=86	=86	=86	=86	=86	=86	=86	=86
2r	.	1r	.	1GM	.	voice	.	197.536	G:maj
4.r	.	.	.	.	.	.	.	.	.
8a	When	.	.	.	.	.	.	.	.
=87	=87	=87	=87	=87	=87	=87	=87	=87	=87
4ee	no-	1r	.	1Am	.	voice	.	199.873	A:min
4ee	-thing's	.	.	.	.	.	.	.	.
8dd	miss-	.	.	.	.	.	.	.	.
[4.cc	-ing	.	.	.	.	.	a	.	.
=88	=88	=88	=88	=88	=88	=88	=88	=88	=88
2cc_	_	1r	.	1Am	.	voice	.	202.209	A:min
8cc]	_	.	.	.	.	.	.	.	.
8aa	Ow!	.	.	.	.	.	.	.	.
4r	.	.	.	.	.	.	.	.	.
=89	=89	=89	=89	=89	=89	=89	=89	=89	=89
*>Letter>D	*>Letter>D	*>Letter>D	*>Letter>D	*>Letter>D	*>Letter>D	*>Letter>D	*>Letter>D	*>Letter>D	*>Letter>D
*>Label>Chorus	*>Label>Chorus	*>Label>Chorus	*>Label>Chorus	*>Label>Chorus	*>Label>Chorus	*>Label>Chorus	*>Label>Chorus	*>Label>Chorus	*>Label>Chorus
1r	.	8f#	How	1DM	newline	voice	.	204.546	D:maj
.	.	8g	do	.	.	.	.	.	.
.	.	8a	I	.	.	.	.	.	.
.	.	4a	know	.	.	.	.	.	.
.	.	8g	when	.	.	.	.	.	.
.	.	8f#	it's	.	.	.	.	.	.
.	.	[8e	love?	.	.	.	.	.	.
=90	=90	=90	=90	=90	=90	=90	=90	=90	=90
2r	.	4e]	_	1AM	.	voice	.	206.861	A:maj
.	.	4r	.	.	.	.	.	.	.
8b	I	2r	.	.	.	.	.	.	.
4cc#	can't	.	.	.	.	.	.	.	.
[8dd	tell	.	.	.	.	.	.	.	.
=91	=91	=91	=91	=91	=91	=91	=91	=91	=91
8dd]	_	1r	.	1Bm	.	voice	.	209.175	B:min
8b	you	.	.	.	.	.	.	.	.
8f#	but	.	.	.	.	.	.	.	.
8d	it	.	.	.	.	.	.	.	.
8d	last	.	.	.	.	.	.	.	.
4f#	for-	.	.	.	.	.	.	.	.
8f#	-e-	.	.	.	.	.	(C	.	.
=92	=92	=92	=92	=92	=92	=92	=92	=92	=92
4e	-ver	1r	.	2Em	.	voice	c)	211.49	E:sus4
4r	.	.	.	.	.	.	.	.	.
8r	.	.	.	2AM	.	voice	.	212.647	A:maj
4b	Ooh	.	.	.	.	.	.	.	.
8a	_	.	.	.	.	.	.	.	.
=93	=93	=93	=93	=93	=93	=93	=93	=93	=93
1r	.	8f#	How	1DM	newline	voice	.	213.804	D:maj
.	.	8g	does	.	.	.	.	.	.
.	.	8a	it	.	.	.	.	.	.
.	.	4a	feel	.	.	.	.	.	.
.	.	8g	when	.	.	.	.	.	.
.	.	8f#	it's	.	.	.	.	.	.
.	.	[8e	love?	.	.	.	.	.	.
=94	=94	=94	=94	=94	=94	=94	=94	=94	=94
2r	.	4e]	_	1AM	.	voice	.	216.128	A:maj
.	.	4r	.	.	.	.	.	.	.
8b	It's	2r	.	.	.	.	.	.	.
4cc#	just	.	.	.	.	.	.	.	.
[8dd	some-	.	.	.	.	.	.	.	.
=95	=95	=95	=95	=95	=95	=95	=95	=95	=95
8dd]	_	1r	.	1Bm	.	voice	.	218.452	B:min
8b	-thing	.	.	.	.	.	.	.	.
8f#	you	.	.	.	.	.	.	.	.
8d	feel	.	.	.	.	.	.	.	.
4r	.	.	.	.	.	.	.	.	.
8f#	to-	.	.	.	.	.	.	.	.
8f#	-ge-	.	.	.	.	.	(C	.	.
=96	=96	=96	=96	=96	=96	=96	=96	=96	=96
4e	-ther	1r	.	2Em	.	voice	c)	220.775	E:sus4
4r	.	.	.	.	.	.	.	.	.
8r	.	.	.	2AM	.	voice	.	221.937	A:maj
4b	Hey	.	.	.	.	.	.	.	.
8r	.	.	.	.	.	.	.	.	.
=97	=97	=97	=97	=97	=97	=97	=97	=97	=97
1r	.	8f#	How	1DM	newline	voice	.	223.099	D:maj
.	.	8g	do	.	.	.	.	.	.
.	.	8a	I	.	.	.	.	.	.
.	.	4a	know	.	.	.	.	.	.
.	.	8g	when	.	.	.	.	.	.
.	.	8f#	it's	.	.	.	.	.	.
.	.	[8e	love?	.	.	.	.	.	.
=98	=98	=98	=98	=98	=98	=98	=98	=98	=98
2r	.	4e]	_	1AM	.	voice	.	225.412	A:maj
.	.	4r	.	.	.	.	.	.	.
8b	I	2r	.	.	.	.	.	.	.
4cc#	can't	.	.	.	.	.	.	.	.
[8dd	tell	.	.	.	.	.	.	.	.
=99	=99	=99	=99	=99	=99	=99	=99	=99	=99
8dd]	_	1r	.	1Bm	.	voice	.	227.725	B:min
8b	you	.	.	.	.	.	.	.	.
8f#	but	.	.	.	.	.	.	.	.
8d	it	.	.	.	.	.	.	.	.
8d	last	.	.	.	.	.	.	.	.
4f#	for-	.	.	.	.	.	.	.	.
8f#	-e-	.	.	.	.	.	(C	.	.
=100	=100	=100	=100	=100	=100	=100	=100	=100	=100
4e	-ver	1r	.	2Em	.	voice	c)	230.038	E:sus4
4r	.	.	.	.	.	.	.	.	.
8r	.	.	.	2AM	.	voice	.	231.195	A:maj
8b	When	.	.	.	.	.	.	.	.
8b	it's	.	.	.	.	.	.	.	.
8a	love	.	.	.	.	.	.	.	.
=101	=101	=101	=101	=101	=101	=101	=101	=101	=101
*>Letter>A	*>Letter>A	*>Letter>A	*>Letter>A	*>Letter>A	*>Letter>A	*>Letter>A	*>Letter>A	*>Letter>A	*>Letter>A
*>Label>Outro	*>Label>Outro	*>Label>Outro	*>Label>Outro	*>Label>Outro	*>Label>Outro	*>Label>Outro	*>Label>Outro	*>Label>Outro	*>Label>Outro
2f#	_	1r	.	1DM	newline	guitar	.	232.351	D:maj
2r	.	.	.	.	.	.	.	.	.
=102	=102	=102	=102	=102	=102	=102	=102	=102	=102
1r	.	1r	.	1AM	.	guitar	.	234.702	A:maj
=103	=103	=103	=103	=103	=103	=103	=103	=103	=103
1r	.	1r	.	1DM	.	guitar	.	237.052	D:maj/3
=104	=104	=104	=104	=104	=104	=104	=104	=104	=104
8r	.	1r	.	1GM	.	guitar	.	239.403	G:maj
2b	Ooh	.	.	.	.	.	.	.	.
8b	when	.	.	.	.	.	.	.	.
8.a	it's	.	.	.	.	.	.	.	.
16a	love	.	.	.	.	.	.	.	.
=105	=105	=105	=105	=105	=105	=105	=105	=105	=105
8f#	_	1r	.	1DM	newline	guitar	.	241.754	D:maj
16e	_	.	.	.	.	.	.	.	.
[16d	_	.	.	.	.	.	.	.	.
4d]	_	.	.	.	.	.	.	.	.
2r	.	.	.	.	.	.	.	.	.
=106	=106	=106	=106	=106	=106	=106	=106	=106	=106
1r	.	1r	.	1AM	.	guitar	.	244.085	A:maj
=107	=107	=107	=107	=107	=107	=107	=107	=107	=107
2.r	.	1r	.	1DM	.	guitar	.	246.416	D:maj/3
8b	Hey!	.	.	.	.	.	.	.	.
8r	.	.	.	.	.	.	.	.	.
=108	=108	=108	=108	=108	=108	=108	=108	=108	=108
4r	.	1r	.	1AM	.	guitar	.	248.747	A:maj
8r	.	.	.	.	.	.	.	.	.
8dd	It	.	.	.	.	.	.	.	.
4dd	lasts	.	.	.	.	.	.	.	.
8a	for-	.	.	.	.	.	.	.	.
8b	-e-	.	.	.	.	.	(C	.	.
=109	=109	=109	=109	=109	=109	=109	=109	=109	=109
4a	-ver	4.f#	Na	1DM	newline	guitar	c)	251.078	D:maj
4r	.	.	.	.	.	.	.	.	.
.	.	[8g	na	.	.	.	.	.	.
2r	.	4g]	_	.	.	.	.	.	.
.	.	[4a	na	.	.	.	.	.	.
=110	=110	=110	=110	=110	=110	=110	=110	=110	=110
2r	.	4a]	_	1AM	.	guitar	.	253.377	A:maj
.	.	4.e	na	.	.	.	.	.	.
8r	.	.	.	.	.	.	.	.	.
16a	When	8c#	na	.	.	.	.	.	.
8.f#	it's	.	.	.	.	.	.	.	.
.	.	4r	.	.	.	.	.	.	.
[8b	love	.	.	.	.	.	.	.	.
=111	=111	=111	=111	=111	=111	=111	=111	=111	=111
4b]	_	4.f#	Na	1DM	.	guitar	.	255.676	D:maj/3
4r	.	.	.	.	.	.	.	.	.
.	.	[8g	na	.	.	.	.	.	.
2r	.	4g]	_	.	.	.	.	.	.
.	.	[4a	na	.	.	.	.	.	.
=112	=112	=112	=112	=112	=112	=112	=112	=112	=112
1r	.	4a]	_	1GM	.	guitar	.	257.975	G:maj
.	.	4.g	na	.	.	.	.	.	.
.	.	8d	na	.	.	.	.	.	.
.	.	4r	.	.	.	.	.	.	.
=113	=113	=113	=113	=113	=113	=113	=113	=113	=113
1r	.	4.f#	Na	1DM	newline	guitar	.	260.274	D:maj
.	.	[8g	na	.	.	.	.	.	.
.	.	4g]	_	.	.	.	.	.	.
.	.	[4a	na	.	.	.	.	.	.
=114	=114	=114	=114	=114	=114	=114	=114	=114	=114
1r	.	4a]	_	1AM	.	guitar	.	262.589	A:maj
.	.	4.e	na	.	.	.	.	.	.
.	.	8c#	na	.	.	.	.	.	.
.	.	4r	.	.	.	.	.	.	.
=115	=115	=115	=115	=115	=115	=115	=115	=115	=115
4r	.	4.f#	Na	1DM	.	guitar	.	264.904	D:maj/3
16b	You	.	.	.	.	.	.	.	.
16b	and	.	.	.	.	.	.	.	.
8b	I	[8g	na	.	.	.	.	.	.
2r	.	4g]	_	.	.	.	.	.	.
.	.	[4a	na	.	.	.	.	.	.
=116	=116	=116	=116	=116	=116	=116	=116	=116	=116
8r	.	4a]	_	1GM	.	guitar	.	267.219	G:maj
8dd	We're	.	.	.	.	.	.	.	.
8dd	gon-	4.g	na	.	.	.	.	.	.
16dd	-na	.	.	.	.	.	.	.	.
8.dd	feel	.	.	.	.	.	.	.	.
8a	this	8d	na	.	.	.	.	.	.
[4b	way	4r	.	.	.	.	.	.	.
=117	=117	=117	=117	=117	=117	=117	=117	=117	=117
4..b]	_	4.f#	Na	1DM	newline	guitar	.	269.534	D:maj
.	.	[8g	na	.	.	.	.	.	.
16b	to-	.	.	.	.	.	.	.	.
8a	-ge-	4g]	_	.	.	.	(C	.	.
8f#	-ther	.	.	.	.	.	c)	.	.
4r	.	[4a	na	.	.	.	.	.	.
=118	=118	=118	=118	=118	=118	=118	=118	=118	=118
2r	.	4a]	_	1AM	.	guitar	.	271.857	A:maj
.	.	4.e	na	.	.	.	.	.	.
8r	.	.	.	.	.	.	.	.	.
8a	When	8c#	na	.	.	.	.	.	.
8f#	it's	4r	.	.	.	.	.	.	.
[8b	love	.	.	.	.	.	.	.	.
=119	=119	=119	=119	=119	=119	=119	=119	=119	=119
4b]	_	4.f#	Na	1DM	.	guitar	.	274.179	D:maj/3
4r	.	.	.	.	.	.	.	.	.
.	.	[8g	na	.	.	.	.	.	.
2r	.	4g]	_	.	.	.	.	.	.
.	.	[4a	na	.	.	.	.	.	.
=120	=120	=120	=120	=120	=120	=120	=120	=120	=120
8r	.	4a]	_	1GM	.	guitar	.	276.502	G:maj
8dd	Ooh	.	.	.	.	.	.	.	.
8b	_	4.g	na	.	.	.	.	.	.
4a	_	.	.	.	.	.	.	.	.
8a	When	8d	na	.	.	.	.	.	.
8a	it's	4r	.	.	.	.	.	.	.
8b	love	.	.	.	.	.	.	.	.
=121	=121	=121	=121	=121	=121	=121	=121	=121	=121
4.a	_	4.f#	Na	1DM	newline	guitar	.	278.824	D:maj
16a	ba-	[8g	na	.	.	.	.	.	.
16a	-by	.	.	.	.	.	.	.	.
2r	.	4g]	_	.	.	.	.	.	.
.	.	[4a	na	.	.	.	.	.	.
=122	=122	=122	=122	=122	=122	=122	=122	=122	=122
1r	.	4a]	_	1AM	.	guitar	.	281.148	A:maj
.	.	4.e	na	.	.	.	.	.	.
.	.	8c#	na	.	.	.	.	.	.
.	.	4r	.	.	.	.	.	.	.
=123	=123	=123	=123	=123	=123	=123	=123	=123	=123
1r	.	4.f#	Na	1DM	.	guitar	.	283.472	D:maj/3
.	.	[8g	na	.	.	.	.	.	.
.	.	4g]	_	.	.	.	.	.	.
.	.	[4a	na	.	.	.	.	.	.
=124	=124	=124	=124	=124	=124	=124	=124	=124	=124
8r	.	4a]	_	1GM	.	guitar	.	285.796	G:maj
16a	You	.	.	.	.	.	.	.	.
16a	can	.	.	.	.	.	.	.	.
8.b	feel	4.g	na	.	.	.	.	.	.
16dd	it	.	.	.	.	.	.	.	.
4r	.	.	.	.	.	.	.	.	.
.	.	8d	na	.	.	.	.	.	.
4dd	Yeah!	4r	.	.	.	.	.	.	.
=125	=125	=125	=125	=125	=125	=125	=125	=125	=125
1r	.	4.f#	Na	1DM	newline	guitar	.	288.12	D:maj
.	.	[8g	na	.	.	.	.	.	.
.	.	4g]	_	.	.	.	.	.	.
.	.	[4a	na	.	.	.	.	.	.
=126	=126	=126	=126	=126	=126	=126	=126	=126	=126
1r	.	4a]	_	1AM	.	guitar	.	290.438	A:maj
.	.	4.e	na	.	.	.	.	.	.
.	.	8c#	na	.	.	.	.	.	.
.	.	4r	.	.	.	.	.	.	.
=127	=127	=127	=127	=127	=127	=127	=127	=127	=127
1r	.	4.f#	Na	1DM	.	guitar	.	292.756	D:maj/3
.	.	[8g	na	.	.	.	.	.	.
.	.	4g]	_	.	.	.	.	.	.
.	.	[4a	na	.	.	.	.	.	.
=128	=128	=128	=128	=128	=128	=128	=128	=128	=128
8r	.	4a]	_	1GM	.	guitar	.	295.074	G:maj
8dd	We'll	.	.	.	.	.	.	.	.
8dd	make	4.g	na	.	.	.	.	.	.
8b	it	.	.	.	.	.	.	.	.
4dd	last	.	.	.	.	.	.	.	.
.	.	8d	na	.	.	.	.	.	.
8a	for-	4r	.	.	.	.	.	.	.
8b	-e-	.	.	.	.	.	(C	.	.
=129	=129	=129	=129	=129	=129	=129	=129	=129	=129
4a	-ver	4.f#	Na	1FM	newline	guitar	c)	297.392	F:maj
4r	.	.	.	.	.	.	.	.	.
.	.	[8g	na	.	.	.	.	.	.
2r	.	4g]	_	.	.	.	.	.	.
.	.	[4a	na	.	.	.	.	.	.
=130	=130	=130	=130	=130	=130	=130	=130	=130	=130
1r	.	4a]	_	1CM	.	guitar	.	299.844	C:maj
.	.	4.e	na	.	.	.	.	.	.
.	.	8c#	na	.	.	.	.	.	.
.	.	4r	.	.	.	.	.	.	.
=131	=131	=131	=131	=131	=131	=131	=131	=131	=131
1r	.	4.f#	Na	1FM	.	guitar	.	302.295	F:maj
.	.	[8g	na	.	.	.	.	.	.
.	.	4g]	_	.	.	.	.	.	.
.	.	[4a	na	.	.	.	.	.	.
=132	=132	=132	=132	=132	=132	=132	=132	=132	=132
8r	.	4a]	_	1CM	.	guitar	.	304.747	C:maj
8dd	Ooh	.	.	.	.	.	.	.	.
8b	_	4.g	na	.	.	.	.	.	.
4a	_	.	.	.	.	.	.	.	.
8a	It's	8d	na	.	.	.	.	.	.
8r	.	4r	.	.	.	.	.	.	.
16f	love	.	.	.	.	.	.	.	.
16e	_	.	.	.	.	.	.	.	.
=133	=133	=133	=133	=133	=133	=133	=133	=133	=133
4d	_	1r	.	1DM	newline	guitar	.	307.199	D:maj
4r	.	.	.	.	.	.	.	.	.
2r	.	.	.	.	.	.	.	.	.
r;	.	r;	.	1r;	.	r	.	315.174	N.C.
r;	.	r;	.	1r;	.	r	.	322.403	N.C.
*-	*-	*-	*-	*-	*-	*-	*-	*-	*-
!!!BillboardChartDate: 1988/07/30
!!!BillboardPeak: 29
!!!BillboardWeeksOnChart: 2
!!!COC: Van Halen
!!!ENC: Nathaniel Condit-Schultz
!!!EST: Awating manual error checking and editing.
!!!OTL: When It's Love
!!!RDF**chordsym: original McGill chord annotation + (implied pitch class set, with bass pitch in first position)
!!!RDF**harmony: **recip + pitch class of root + harmonic quality
!!!RDF**leadinstrument: original McGill primary instrumentation annotation
!!!RDF**phrase: newline = linebreak in original McGill transcription
!!!RDF**timestamp: McGill audio timestamp in seconds
!!!RDT: 2017/01/12/
!!!SampleActualRank: 29
!!!SampleID#: 1281
!!!SampleTargetRank: 30
